packages/core/src/svgs/snail.svg

<svg width="24" height="24" viewBox="0 0 24 24" fill="none" xmlns="http://www.w3.org/2000/svg">
<g clip-path="url(#clip0_31_18919)">
<path d="M0 0H24V24H0V0Z" fill="#270963"/>
<path d="M11.2328 7.56006C10.1571 7.56006 7.19568 10.1401 5.84997 11.4301C5.48997 12.3986 6.29997 12.8015 6.74997 12.8829C8.76425 12.8829 12.1285 8.52863 12.1285 8.04434C12.1285 7.65863 11.5285 7.56006 11.2328 7.56006Z" fill="url(#paint0_linear_31_18919)"/>
<path d="M9.88719 7.56006C7.91576 7.7572 6.67291 9.25292 6.30005 9.98149C7.41862 10.2215 7.86862 9.7372 8.54148 9.01292C9.08148 8.43434 11.01 7.96292 11.9058 7.80434C11.2443 7.64671 10.5671 7.56475 9.88719 7.56006Z" fill="url(#paint1_linear_31_18919)"/>
<path d="M7.41862 10.4656C6.52291 10.4656 6.30005 10.1399 6.30005 9.98134H7.20005C7.64576 9.98134 8.36576 9.0942 8.76433 8.77277C9.66433 8.0442 10.7829 7.8042 11.9058 7.8042C10.7829 8.69134 8.31862 10.4613 7.41862 10.4613V10.4656Z" fill="#D2ADFD"/>
<path d="M6.74575 12.3984C5.85004 12.3984 5.77718 11.7556 5.85004 11.4298C5.75146 11.7856 5.58004 12.4241 5.62718 12.8827C5.68289 13.4741 6.04289 13.8513 6.74575 13.8513C8.31861 13.8513 12.8186 10.2856 13.7143 10.2856C14.43 10.2856 14.52 10.5427 14.5972 10.7056C14.4472 10.1398 13.9243 9.0127 13.0286 9.0127C11.9057 9.0127 7.86861 12.3984 6.74575 12.3984Z" fill="url(#paint2_linear_31_18919)"/>
<path d="M13.9243 11.4301C11.0529 12.2058 8.54147 15.1415 7.64575 16.5129C8.18147 16.7058 8.76432 16.7529 8.99147 16.7529C11.0058 16.7529 14.82 13.6072 14.82 12.3987C14.82 11.4301 14.22 11.3529 13.92 11.4301H13.9243Z" fill="url(#paint3_linear_31_18919)"/>
<path d="M6.74581 16.5127C6.2101 16.5127 5.92724 17.3184 5.8501 17.7213C5.8501 18.2056 7.86867 17.9613 8.09153 17.7213C8.31867 17.477 7.41867 16.5127 6.74581 16.5127Z" fill="url(#paint4_linear_31_18919)"/>
<path d="M13.7015 10.2215C11.3572 10.2858 7.87291 13.8515 6.74577 13.8515C6.30005 13.8515 5.85005 13.3672 5.6272 12.8829C5.40434 13.8515 5.85005 14.8201 7.19577 14.8201C8.54148 14.8201 11.4558 13.1229 13.0243 12.1586C14.2843 11.3872 14.7472 11.6744 14.8243 11.9144L14.5972 10.7058C14.3743 10.2215 14.1472 10.2086 13.6972 10.2215H13.7015Z" fill="url(#paint5_linear_31_18919)"/>
<path d="M7.74438 16.5686C7.94581 16.6543 8.44296 16.7529 9.44153 16.7529C11.0187 16.7529 12.8144 16.0243 14.1644 14.5757C15.5144 13.1229 16.6372 9.98145 17.9872 9.98145C19.3372 9.98145 19.3372 14.0957 16.4144 16.2686C15.2872 17.2372 13.3115 17.7214 11.6915 17.7214C10.1487 17.7214 8.47724 16.9886 7.74867 16.5686H7.74438Z" fill="url(#paint6_linear_31_18919)"/>
<path d="M13.9929 7.75714C13.3329 7.37142 13.44 6.94285 13.5815 6.78C13.9929 6.29142 15.2315 6.78 15.8529 8.00142C16.47 9.22285 16.0586 10.6886 15.6429 10.9329C15.2315 11.1771 14.82 8.24571 13.9929 7.76142V7.75714Z" fill="url(#paint7_linear_31_18919)"/>
<path d="M15.3386 6.30841C14.6786 5.91412 14.7858 5.49412 14.9272 5.33127C15.3386 4.84269 16.5772 5.33127 17.1986 6.55269C17.8158 7.77412 17.4043 9.23984 16.9886 9.48412C16.5772 9.72841 16.1658 6.79698 15.3386 6.30841Z" fill="url(#paint8_linear_31_18919)"/>
</g>
<defs>
<linearGradient id="paint0_linear_31_18919" x1="11.6828" y1="7.80434" x2="5.99139" y2="11.9786" gradientUnits="userSpaceOnUse">
<stop stop-color="#3F12B7"/>
<stop offset="1" stop-color="#2F0FD2"/>
</linearGradient>
<linearGradient id="paint1_linear_31_18919" x1="9.10291" y1="7.56006" x2="8.97005" y2="9.25292" gradientUnits="userSpaceOnUse">
<stop stop-color="#C28EFA"/>
<stop offset="1" stop-color="#E6C2FF"/>
</linearGradient>
<linearGradient id="paint2_linear_31_18919" x1="13.2515" y1="9.2527" x2="5.82432" y2="13.127" gradientUnits="userSpaceOnUse">
<stop stop-color="#87CAFF"/>
<stop offset="1" stop-color="#5E7EF5"/>
</linearGradient>
<linearGradient id="paint3_linear_31_18919" x1="14.3143" y1="11.6529" x2="8.43432" y2="16.4915" gradientUnits="userSpaceOnUse">
<stop stop-color="#004F9E"/>
<stop offset="1" stop-color="#02628A"/>
</linearGradient>
<linearGradient id="paint4_linear_31_18919" x1="7.96724" y1="16.577" x2="6.30438" y2="18.1413" gradientUnits="userSpaceOnUse">
<stop stop-color="#49D2E5"/>
<stop offset="1" stop-color="#58FCCC"/>
</linearGradient>
<linearGradient id="paint5_linear_31_18919" x1="14.1472" y1="10.4658" x2="6.72005" y2="14.3358" gradientUnits="userSpaceOnUse">
<stop stop-color="#BBE9F9"/>
<stop offset="1" stop-color="#607EFF"/>
</linearGradient>
<linearGradient id="paint6_linear_31_18919" x1="17.9872" y1="10.7057" x2="9.67724" y2="16.8857" gradientUnits="userSpaceOnUse">
<stop stop-color="#D2FCD2"/>
<stop offset="1" stop-color="#53DBED"/>
</linearGradient>
<linearGradient id="paint7_linear_31_18919" x1="13.9929" y1="6.78" x2="16.3458" y2="10.0929" gradientUnits="userSpaceOnUse">
<stop stop-color="#C4F4E4"/>
<stop offset="1" stop-color="#84FFBB"/>
</linearGradient>
<linearGradient id="paint8_linear_31_18919" x1="15.3386" y1="5.33127" x2="17.6915" y2="8.64412" gradientUnits="userSpaceOnUse">
<stop stop-color="#C4F4E4"/>
<stop offset="1" stop-color="#84FFBB"/>
</linearGradient>
<clipPath id="clip0_31_18919">
<rect width="24" height="24" fill="white"/>
</clipPath>
</defs>
</svg>

<svg xmlns="http://www.w3.org/2000/svg" width="24" height="24" fill="none" viewBox="0 0 24 24"><g clip-path="url(#a)"><path fill="#270963" d="M0 0h24v24H0z"/><path fill="url(#b)" d="M11.233 7.56c-1.076 0-4.037 2.58-5.383 3.87-.36.969.45 1.372.9 1.453 2.014 0 5.379-4.354 5.379-4.839 0-.385-.6-.484-.896-.484"/><path fill="url(#c)" d="M9.887 7.56C7.916 7.757 6.673 9.253 6.3 9.981c1.119.24 1.569-.244 2.241-.968.54-.579 2.469-1.05 3.365-1.209a9 9 0 0 0-2.019-.244"/><path fill="#D2ADFD" d="M7.419 10.466c-.896 0-1.119-.326-1.119-.485h.9c.446 0 1.166-.887 1.564-1.208.9-.729 2.019-.969 3.142-.969-1.123.887-3.587 2.657-4.487 2.657z"/><path fill="url(#d)" d="M6.746 12.398c-.896 0-.969-.642-.896-.968-.099.356-.27.994-.223 1.453.056.591.416.968 1.119.968 1.573 0 6.073-3.565 6.968-3.565.716 0 .806.257.883.42-.15-.566-.673-1.693-1.568-1.693-1.123 0-5.16 3.385-6.283 3.385"/><path fill="url(#e)" d="M13.924 11.43c-2.871.776-5.383 3.712-6.278 5.083.535.193 1.118.24 1.345.24 2.015 0 5.829-3.146 5.829-4.354 0-.969-.6-1.046-.9-.969z"/><path fill="url(#f)" d="M6.746 16.513c-.536 0-.819.805-.896 1.208 0 .485 2.019.24 2.242 0 .227-.244-.673-1.208-1.346-1.208"/><path fill="url(#g)" d="M13.702 10.222c-2.345.064-5.83 3.63-6.956 3.63-.446 0-.896-.485-1.119-.97-.223.97.223 1.938 1.569 1.938s4.26-1.697 5.828-2.661c1.26-.772 1.723-.485 1.8-.245l-.227-1.208c-.223-.484-.45-.497-.9-.484z"/><path fill="url(#h)" d="M7.744 16.569c.202.085.699.184 1.698.184 1.577 0 3.372-.729 4.722-2.177 1.35-1.453 2.473-4.595 3.823-4.595s1.35 4.115-1.573 6.288c-1.127.968-3.103 1.452-4.723 1.452-1.542 0-3.214-.732-3.942-1.152z"/><path fill="url(#i)" d="M13.993 7.757c-.66-.386-.553-.814-.412-.977.412-.489 1.65 0 2.272 1.221.617 1.222.206 2.688-.21 2.932-.412.244-.823-2.687-1.65-3.172z"/><path fill="url(#j)" d="M15.339 6.308c-.66-.394-.553-.814-.412-.977.412-.488 1.65 0 2.272 1.222.617 1.221.205 2.687-.21 2.931-.412.244-.823-2.687-1.65-3.176"/></g><defs><linearGradient id="b" x1="11.683" x2="5.991" y1="7.804" y2="11.979" gradientUnits="userSpaceOnUse"><stop stop-color="#3F12B7"/><stop offset="1" stop-color="#2F0FD2"/></linearGradient><linearGradient id="c" x1="9.103" x2="8.97" y1="7.56" y2="9.253" gradientUnits="userSpaceOnUse"><stop stop-color="#C28EFA"/><stop offset="1" stop-color="#E6C2FF"/></linearGradient><linearGradient id="d" x1="13.252" x2="5.824" y1="9.253" y2="13.127" gradientUnits="userSpaceOnUse"><stop stop-color="#87CAFF"/><stop offset="1" stop-color="#5E7EF5"/></linearGradient><linearGradient id="e" x1="14.314" x2="8.434" y1="11.653" y2="16.491" gradientUnits="userSpaceOnUse"><stop stop-color="#004F9E"/><stop offset="1" stop-color="#02628A"/></linearGradient><linearGradient id="f" x1="7.967" x2="6.304" y1="16.577" y2="18.141" gradientUnits="userSpaceOnUse"><stop stop-color="#49D2E5"/><stop offset="1" stop-color="#58FCCC"/></linearGradient><linearGradient id="g" x1="14.147" x2="6.72" y1="10.466" y2="14.336" gradientUnits="userSpaceOnUse"><stop stop-color="#BBE9F9"/><stop offset="1" stop-color="#607EFF"/></linearGradient><linearGradient id="h" x1="17.987" x2="9.677" y1="10.706" y2="16.886" gradientUnits="userSpaceOnUse"><stop stop-color="#D2FCD2"/><stop offset="1" stop-color="#53DBED"/></linearGradient><linearGradient id="i" x1="13.993" x2="16.346" y1="6.78" y2="10.093" gradientUnits="userSpaceOnUse"><stop stop-color="#C4F4E4"/><stop offset="1" stop-color="#84FFBB"/></linearGradient><linearGradient id="j" x1="15.339" x2="17.692" y1="5.331" y2="8.644" gradientUnits="userSpaceOnUse"><stop stop-color="#C4F4E4"/><stop offset="1" stop-color="#84FFBB"/></linearGradient><clipPath id="a"><path fill="#fff" d="M0 0h24v24H0z"/></clipPath></defs></svg>
